X:345
T:Tythe Pig. (p)1695.PLFD.345
M:6/4
L:1/4
Q:3/4=100
S:Playford, Dancing Master,9th Ed,1695.
O:England
N:Third line sounds like Morris slows..
H:1695.
Z:Chris Partington.
K:F
F|F>GAGEC|F2GA2A|B>cdcAF|B2GE2:|
|:c|cAAF2d|dBBG2B|cAcdBd|cAcdde|f3-f>ed|
c2AF3|c2Ac3|c2Ad2e|fedcAF|c2AF2:|
